assets/icons/instagram-default.svg

<svg width="24" height="24" viewBox="0 0 24 24" xmlns="http://www.w3.org/2000/svg">
  <g fill="#999" fill-rule="evenodd">
    <path d="M12 2.162c3.204 0 3.584.012 4.849.07 1.366.062 2.633.336 3.608 1.311.975.975 1.249 2.242 1.311 3.608.058 1.265.07 1.645.07 4.849s-.012 3.584-.07 4.849c-.062 1.366-.336 2.633-1.311 3.608-.975.975-2.242 1.249-3.608 1.311-1.265.058-1.645.07-4.849.07s-3.584-.012-4.849-.07c-1.366-.062-2.633-.336-3.608-1.311-.975-.975-1.249-2.242-1.311-3.608-.058-1.265-.07-1.645-.07-4.849s.012-3.584.07-4.849c.062-1.366.336-2.633 1.311-3.608.975-.975 2.242-1.249 3.608-1.311 1.265-.058 1.645-.07 4.849-.07zM12 0C8.741 0 8.332.014 7.052.072c-1.95.089-3.663.567-5.038 1.942C.639 3.389.161 5.102.072 7.052.014 8.332 0 8.741 0 12c0 3.259.014 3.668.072 4.948.089 1.95.567 3.663 1.942 5.038 1.375 1.375 3.088 1.853 5.038 1.942C8.332 23.986 8.741 24 12 24c3.259 0 3.668-.014 4.948-.072 1.95-.089 3.663-.567 5.038-1.942 1.375-1.375 1.853-3.088 1.942-5.038.058-1.28.072-1.689.072-4.948 0-3.259-.014-3.668-.072-4.948-.089-1.95-.567-3.663-1.942-5.038C20.611.639 18.898.161 16.948.072 15.668.014 15.259 0 12 0z"/>
    <path d="M12 5.838a6.162 6.162 0 1 0 0 12.324 6.162 6.162 0 0 0 0-12.324zM12 16a4 4 0 1 1 0-8 4 4 0 0 1 0 8z"/>
    <circle cx="18.406" cy="5.594" r="1.44"/>
  </g>
</svg>

<svg width="24" height="24" viewBox="0 0 24 24" xmlns="http://www.w3.org/2000/svg">
  <g id="Styleguide" fill="none" fill-rule="evenodd">
    <g id="Base-Style---Icons" transform="translate(-319 -1688)" fill="#999">
      <g id="Instagram" transform="translate(299 1688)">
        <g id="Instagram-Default" transform="translate(20)">
          <path d="M12,2.162 C15.204,2.162 15.584,2.174 16.849,2.232 C18.215,2.294 19.482,2.568 20.457,3.543 C21.432,4.518 21.706,5.785 21.768,7.151 C21.826,8.416 21.838,8.796 21.838,12 C21.838,15.204 21.826,15.584 21.768,16.849 C21.706,18.215 21.432,19.482 20.457,20.457 C19.482,21.432 18.215,21.706 16.849,21.768 C15.584,21.826 15.204,21.838 12,21.838 C8.796,21.838 8.416,21.826 7.151,21.768 C5.785,21.706 4.518,21.432 3.543,20.457 C2.568,19.482 2.294,18.215 2.232,16.849 C2.174,15.584 2.162,15.204 2.162,12 C2.162,8.796 2.174,8.416 2.232,7.151 C2.294,5.785 2.568,4.518 3.543,3.543 C4.518,2.568 5.785,2.294 7.151,2.232 C8.416,2.174 8.796,2.162 12,2.162 L12,2.162 Z M12,0 C8.741,0 8.332,0.014 7.052,0.072 C5.102,0.161 3.389,0.639 2.014,2.014 C0.639,3.389 0.161,5.102 0.072,7.052 C0.014,8.332 0,8.741 0,12 C0,15.259 0.014,15.668 0.072,16.948 C0.161,18.898 0.639,20.611 2.014,21.986 C3.389,23.361 5.102,23.839 7.052,23.928 C8.332,23.986 8.741,24 12,24 C15.259,24 15.668,23.986 16.948,23.928 C18.898,23.839 20.611,23.361 21.986,21.986 C23.361,20.611 23.839,18.898 23.928,16.948 C23.986,15.668 24,15.259 24,12 C24,8.741 23.986,8.332 23.928,7.052 C23.839,5.102 23.361,3.389 21.986,2.014 C20.611,0.639 18.898,0.161 16.948,0.072 C15.668,0.014 15.259,0 12,0 L12,0 L12,0 Z" id="Shape"/>
          <path d="M12,5.838 C8.597,5.838 5.838,8.597 5.838,12 C5.838,15.403 8.597,18.162 12,18.162 C15.403,18.162 18.162,15.403 18.162,12 C18.162,8.597 15.403,5.838 12,5.838 L12,5.838 Z M12,16 C9.791,16 8,14.209 8,12 C8,9.791 9.791,8 12,8 C14.209,8 16,9.791 16,12 C16,14.209 14.209,16 12,16 L12,16 Z" id="Shape"/>
          <circle id="Oval" cx="18.406" cy="5.594" r="1.44"/>
        </g>
      </g>
    </g>
  </g>
</svg>
